X:195
T: MEINE RED IST ABSCHIEDSVOLL
N: E0778
O: Europa, Mitteleuropa, Deutschland, Hessen, Wetzlar, Ober - Lahnkreis
R: Abschieds - Lied, Wander - Lied, Liebe
M: 4/4
L: 1/8
K: G
 | G3DG2d2 | B2BAG4 |
B3AB2de | d2cBA4 |
G2e2d2dc | B2d2c4 |
A2d2B3A | G2A2B2
d2 | e2dcB4

